!!!COM: Gaspar van Weerbeke
!!!CDT: ~1450-~1517
!!!OPR: Missa Se mieulx ne vient
!!!OTL: Sanctus
!!!ONM: 4
!!!AGN: Mass
!!!SCT: Gas0104d
!!!SCA: Gas0104d
!!!voices: 4
**kern	**text	**kern	**text	**kern	**text	**kern	**text
*part4	*part4	*part3	*part3	*part2	*part2	*part1	*part1
*staff4	*staff4	*staff3	*staff3	*staff2	*staff2	*staff1	*staff1
*I"Bassus	*	*I"Tenor	*	*I"Altus	*	*I"Superius	*
*I'B	*	*I'T	*	*I'A	*	*I'S	*
*clefF4	*	*clefGv2	*	*clefGv2	*	*clefG2	*
*k[]	*	*k[]	*	*k[]	*	*k[]	*
*M3/2	*	*M3/2	*	*M3/2	*	*M3/2	*
*met(O)	*	*met(O)	*	*met(O)	*	*met(O)	*
=1	=1	=1	=1	=1	=1	=1	=1
1.D	San-	1.r	.	1.r	.	1d	San-
.	.	.	.	.	.	2f	.
=2	=2	=2	=2	=2	=2	=2	=2
1G	.	1.r	.	2r	.	4e	.
.	.	.	.	.	.	2d	.
.	.	.	.	2r	.	.	.
.	.	.	.	.	.	2g	.
2A	.	.	.	2D	San-	.	.
.	.	.	.	.	.	4f	.
=3	=3	=3	=3	=3	=3	=3	=3
2.B	-ctus,	1.r	.	1G	.	4.g	.
.	.	.	.	.	.	8f	.
.	.	.	.	.	.	4d	.
*	*edit	*	*	*	*	*	*
4B	san-	.	.	.	.	4g	.
4c	.	.	.	2A	.	4.e	.
8BL	.	.	.	.	.	.	.
8AJ	.	.	.	.	.	8f	.
=4	=4	=4	=4	=4	=4	=4	=4
2G	.	1.r	.	2.B	-ctus,	2g	-ctus,
4E	.	.	.	.	.	2r	.
*	*	*	*	*	*edit	*	*
4D	.	.	.	4B	san-	.	.
4C	.	.	.	4c	.	2r	.
[4E	.	.	.	8BL	.	.	.
.	.	.	.	8AJ	.	.	.
=5	=5	=5	=5	=5	=5	=5	=5
4E]	.	1.r	.	4G	.	1.r	.
2D	.	.	.	2d	.	.	.
2G	.	.	.	2B	.	.	.
4F	.	.	.	4A	.	.	.
!!LO:LB:g=original
=6	=6	=6	=6	=6	=6	=6	=6
2G	.	1.r	.	4B	.	4d	san-
.	.	.	.	4.E	.	2g	.
4C	.	.	.	.	.	.	.
.	.	.	.	8D	.	.	.
4BB	.	.	.	2G	.	4g	.
2AA	.	.	.	.	.	4.a	.
.	.	.	.	4F#i	.	.	.
.	.	.	.	.	.	16gLL	.
.	.	.	.	.	.	16aJJ	.
=7	=7	=7	=7	=7	=7	=7	=7
1.GG	-ctus,	2r	.	2G	-ctus,	2b	.
.	.	2r	.	4.G	san-	2g	-ctus,
.	.	.	.	8A	.	.	.
*	*	*	*	*	*	*	*edit
.	.	2D	San-	8BL	.	4.dd	san-
.	.	.	.	8cJ	.	.	.
.	.	.	.	[4d	.	.	.
.	.	.	.	.	.	8cc	.
=8	=8	=8	=8	=8	=8	=8	=8
*lig	*	*	*	*	*	*	*
2GG	san-	1G	.	4d]	.	8bL	.
.	.	.	.	.	.	8aJ	.
.	.	.	.	2D	.	2b	.
2BB	.	.	.	.	.	.	.
*Xlig	*	*	*	*	*	*	*
.	.	.	.	2G	.	4g	.
2AA	.	2A	.	.	.	2cc	.
.	.	.	.	4F#i	.	.	.
=9	=9	=9	=9	=9	=9	=9	=9
1GG	-ctus,	1.B	-ctus,	4G	-ctus,	4b	.
*	*	*	*	*	*Xedit	*	*
.	.	.	.	2.d	san-	4g	.
.	.	.	.	.	.	4b	.
.	.	.	.	.	.	2dd	.
*	*Xedit	*	*	*	*	*	*
2G	san-	.	.	4B	.	.	.
.	.	.	.	4G	.	4b	.
!!LO:LB:g=original
=10	=10	=10	=10	=10	=10	=10	=10
2.F	.	1c	san-	4.A	.	2.a	.
.	.	.	.	8B	.	.	.
.	.	.	.	8cL	.	.	.
.	.	.	.	8dJ	.	.	.
4E	.	.	.	4e	.	4g	.
2F	.	4c	.	4c	.	2a	.
.	.	8BL	.	4f	.	.	.
.	.	8AJ	.	.	.	.	.
=11	=11	=11	=11	=11	=11	=11	=11
2.G	.	2G	.	4e	.	2.b	.
.	.	.	.	4d	.	.	.
.	.	1d	.	4d	.	.	.
4F	.	.	.	4.f	.	4a	.
2D	.	.	.	.	.	2b	.
.	.	.	.	8e	.	.	.
.	.	.	.	4f	.	.	.
=12	=12	=12	=12	=12	=12	=12	=12
2C	.	2.e	.	2.g	.	4.cc	.
.	.	.	.	.	.	8b	.
4E	.	.	.	.	.	4g	.
4F	.	8dL	.	4f	.	4a	.
.	.	8cJ	.	.	.	.	.
2G	.	2B	.	4.d	.	4.b	.
.	.	.	.	8e	.	8g	.
=13	=13	=13	=13	=13	=13	=13	=13
4F	.	4c	.	4f	.	4a	.
4G	.	4B	.	2d	.	2g	.
2A	.	2c	.	.	.	.	.
.	.	.	.	4c	.	4f#i	.
2G	-ctus,	2B	.	2d	-ctus,	2g	-ctus,
=14	=14	=14	=14	=14	=14	=14	=14
2r	.	2G	-ctus,	4.d	san-	2dd	san-
.	.	.	.	8e	.	.	.
2r	.	4d	san-	4.f	.	4.a	.
.	.	8cL	.	.	.	.	.
.	.	8BJ	.	8g	.	8b	.
2F	san-	2A	.	2a	.	2cc	.
!!LO:LB:g=original
=15	=15	=15	=15	=15	=15	=15	=15
4G	.	4G	.	4d	.	4b	.
4F	.	4D	.	2f	.	2a	.
4D	.	4F	.	.	.	.	.
4E	.	4G	.	4c	.	2g	.
2D	.	2A	.	2d	.	.	.
.	.	.	.	.	.	4f#i	.
=16	=16	=16	=16	=16	=16	=16	=16
*	*edit	*	*	*	*	*	*
2E	-ctus	1G	-ctus	4B	.	1.g	-ctus
.	.	.	.	4G	-ctus	.	.
*	*	*	*	*	*edit	*	*
2C	Do-	.	.	4.g	Do-	.	.
.	.	.	.	8f	.	.	.
*lig	*	*	*	*	*	*	*
2E	.	2r	.	8eL	.	.	.
.	.	.	.	8dJ	.	.	.
.	.	.	.	[4c	.	.	.
=17	=17	=17	=17	=17	=17	=17	=17
2F	.	2r	.	4c]	.	1.r	.
*Xlig	*	*	*	*	*	*	*
.	.	.	.	4A	.	.	.
4E	.	2r	.	4G	.	.	.
2G	.	.	.	2B	.	.	.
.	.	2G	Do-	.	.	.	.
4E	.	.	.	4c	.	.	.
=18	=18	=18	=18	=18	=18	=18	=18
*	*	*	*	*	*	*lig	*Xedit
2D	.	2B	.	2d	.	2d	Do-
2C	.	2c	.	2G	-mi-	2e	.
*	*	*	*	*	*	*Xlig	*
4G	.	4B	.	4B	.	4d	.
4F	.	[4d	.	4A	-nus	[4f	.
=19	=19	=19	=19	=19	=19	=19	=19
2D	-mi-	8d]L	.	2r	.	4f]	.
.	.	8cJ	.	.	.	.	.
.	.	4A	.	.	.	2a	-mi-
2G	-nus	4B-i	.	4.d	De-	.	.
.	.	8AL	.	.	.	4g	.
.	.	8GJ	.	8e	.	.	.
4r	.	4.F	-mi-	8fL	.	2a	-nus,
.	.	.	.	8gJ	.	.	.
4D	De-	.	.	4a	.	.	.
.	.	8D	.	.	.	.	.
!!LO:PB:g=original
=20	=20	=20	=20	=20	=20	=20	=20
4G	.	4E	.	4g	.	1.r	.
4F	.	2D	-nus	2a	.	.	.
2D	.	.	.	.	.	.	.
.	.	2d	De-	4f	.	.	.
2A	-us,	.	.	2e	.	.	.
.	.	4c#j	.	.	.	.	.
=21	=21	=21	=21	=21	=21	=21	=21
*	*	*lig	*	*	*	*	*edit
*	*	*col	*	*	*	*	*
4r	.	1d	.	2d	-us,	2a	Do-
*	*Xedit	*	*	*	*	*	*
4D	Do-	.	.	.	.	.	.
4G	.	.	.	2r	.	4b	.
4F	.	.	.	.	.	2a	.
[2D	.	[2f	.	2r	.	.	.
.	.	.	.	.	.	[4dd	.
=22	=22	=22	=22	=22	=22	=22	=22
4D]	.	2f]	.	1.r	.	4dd]	.
4F	.	.	.	.	.	4a	.
4G	.	1e	.	.	.	4b	.
*	*	*Xcol	*	*	*	*	*
*	*	*Xlig	*	*	*	*	*
4.A	.	.	.	.	.	4.cc	.
8G	.	.	.	.	.	8b	.
4E	.	.	.	.	.	4g	.
=23	=23	=23	=23	=23	=23	=23	=23
*	*	*	*	*	*Xedit	*	*
4F	.	1.d	-us	2d	Do-	4a	.
4.G	.	.	.	.	.	4.b	.
.	.	.	.	4e	.	.	.
8F	.	.	.	.	.	8a	.
4.D	-mi-	.	.	4.f	-mi-	4.a	-mi-
8EL	.	.	.	8e	.	8g	.
8F	.	.	.	4d	.	4f	.
8GJ	.	.	.	.	.	.	.
=24	=24	=24	=24	=24	=24	=24	=24
1A	-nus	1.r	.	2.c	-nus	1e	-nus
.	.	.	.	2A	De-	.	.
*	*	*	*	*	*	*	*Xedit
2AA	De-	.	.	.	.	4.c	De-
.	.	.	.	8GL	.	.	.
.	.	.	.	8FJ	.	8d	.
!!LO:LB:g=original
=25	=25	=25	=25	=25	=25	=25	=25
4C	.	1.r	.	4E	.	4e	.
*	*	*	*	*	*edit	*	*
4D	.	.	.	4D	-us,	4f	.
*	*	*	*	*	*	*	*edit
2AA	-us,	.	.	4r	.	4e	-us,
.	.	.	.	4.A	De-	4c	.
4r	.	.	.	.	.	4.e	De-
.	.	.	.	8BL	.	.	.
*	*edit	*	*	*	*	*	*
4AA	De-	.	.	8c	.	.	.
.	.	.	.	8dJ	.	8f	.
=26	=26	=26	=26	=26	=26	=26	=26
4E	.	1.r	.	4B	.	8gL	.
.	.	.	.	.	.	8aJ	.
4F	.	.	.	4A	.	4f	.
2C	.	.	.	4.c	.	4e	.
.	.	.	.	.	.	4.a	.
.	.	.	.	8B	.	.	.
2D	.	.	.	4.A	.	.	.
.	.	.	.	.	.	8gL	.
.	.	.	.	.	.	8f	.
.	.	.	.	8G	.	8eJ	.
=27	=27	=27	=27	=27	=27	=27	=27
4E	.	1.r	.	4E	.	4g	.
8F	.	.	.	8D	.	8f	.
4C	.	.	.	4G	.	4e	.
8BB	.	.	.	8D	.	8d	.
4D	.	.	.	4F	.	2d	.
2AA	-us	.	.	2E	.	.	.
.	.	.	.	.	.	4c#i	.
=28	=28	=28	=28	=28	=28	=28	=28
*	*	*	*	*	*Xedit	*	*Xedit
2r	.	1.f	Sa-	2D	-us	1d	-us
*	*Xedit	*	*	*	*	*	*
4.D	Sa-	.	.	4r	.	.	.
.	.	.	.	2d	Sa-	.	.
8E	.	.	.	.	.	.	.
8FL	.	.	.	.	.	2r	.
8GJ	.	.	.	.	.	.	.
[4A	-ba-	.	.	[4c	-ba-	.	.
=29	=29	=29	=29	=29	=29	=29	=29
4A]	.	2e	-ba-	4c]	.	1.r	.
4G	.	.	.	4B	.	.	.
4F	.	4d	.	4A	.	.	.
4G	.	4e	.	4B	.	.	.
4E	.	4c	.	4G	.	.	.
8DL	.	[4d	.	4A	.	.	.
8CJ	.	.	.	.	.	.	.
!!LO:LB:g=original
=30	=30	=30	=30	=30	=30	=30	=30
8BBL	.	8d]L	.	4r	.	1.r	.
8AAJ	.	8c	.	.	.	.	.
2D	.	8B	.	2F	.	.	.
.	.	8AJ	.	.	.	.	.
.	.	4B	.	.	.	.	.
4C	.	2A	.	2E	.	.	.
2BB	.	.	.	.	.	.	.
.	.	4G#j	.	4D	.	.	.
=31	=31	=31	=31	=31	=31	=31	=31
*	*edit	*	*edit	*	*edit	*	*
2AA	-oth,	2A	-oth,	2E	-oth,	1.r	.
4GG	Sa-	2r	.	4r	.	.	.
4BB	.	.	.	4G	Sa-	.	.
2AA	.	2r	.	4A	.	.	.
.	.	.	.	4F	.	.	.
=32	=32	=32	=32	=32	=32	=32	=32
4GG	.	2r	.	4G	.	4r	.
4G	-ba-	.	.	4B	.	4g	Sa-
4F	.	2r	.	4A	.	4a	.
4D	.	.	.	4d	.	4f	.
2G	-oth,	4r	.	4B	.	4g	.
.	.	4G	Sa-	4G	.	4b	.
=33	=33	=33	=33	=33	=33	=33	=33
2r	.	4A	.	4c	.	4a	.
.	.	4F	.	4A	.	4cc	.
4r	.	4G	.	4G	.	4b	.
*	*	*	*	*	*	*	*edit
4GG	Sa-	4B	.	2.d	-ba-	2g	-ba-
2D	.	2A	-ba-	.	.	.	.
.	.	.	.	.	.	4f#i	.
=34	=34	=34	=34	=34	=34	=34	=34
4E	.	4.G	-oth,	4B	.	2g	-oth,
4.G	.	.	.	4.B	-oth,	.	.
.	.	8A	.	.	.	.	.
.	.	8BL	.	.	.	2r	.
8FL	.	8cJ	.	8AL	.	.	.
8E	.	2d	Sa-	8G	.	.	.
8DJ	.	.	.	8FJ	.	.	.
2E	.	.	.	2G	Sa-	2g	Sa-
.	.	4c	.	.	.	.	.
!!LO:LB:g=original
=35	=35	=35	=35	=35	=35	=35	=35
2.D	-ba-	2.d	.	4A	.	4.f	-ba-
.	.	.	.	4B	.	.	.
.	.	.	.	.	.	8g	.
.	.	.	.	1A	-ba-	8aL	.
.	.	.	.	.	.	8bJ	.
4.F	.	4A	.	.	.	4.cc	.
.	.	4c	.	.	.	.	.
8C	.	.	.	.	.	8b	.
4F	.	4d	.	.	.	4a	.
=36	=36	=36	=36	=36	=36	=36	=36
2E	.	2.e	-ba-	2B	-oth,	2g	-oth,
2C	-oth,	.	.	2c	Sa-	2cc	Sa-
.	.	4c	.	.	.	.	.
4r	.	4e	.	2G	.	[2b	.
[4G	Sa-	[4d	.	.	.	.	.
=37	=37	=37	=37	=37	=37	=37	=37
8G]L	.	4d]	.	2g	-ba-	4b]	.
8FJ	.	.	.	.	.	.	.
4G	.	4B	.	.	.	4b	.
4D	.	4d	.	4.f	.	2.a	.
4.F	.	2c	.	.	.	.	.
.	.	.	.	8e	.	.	.
.	.	.	.	2c	-oth,	.	.
8E	.	.	.	.	.	.	.
4F	.	4A	.	.	.	8gL	.
.	.	.	.	.	.	8fJ	.
=38	=38	=38	=38	=38	=38	=38	=38
4C	-ba-	4c	.	4r	.	4e	.
2G	.	2B	.	4G	Sa-	2d	.
.	.	.	.	4B	.	.	.
*	*	*	*	*	*	*	*Xedit
4E	.	4G	.	4c	.	2g	-ba-
2D	.	2A	.	2d	-ba-	.	.
.	.	.	.	.	.	4f#i	.
=39	=39	=39	=39	=39	=39	=39	=39
*	*Xedit	*	*Xedit	*	*	*	*
1.GGl	-oth.	1.Gl	-oth.	1.dl	-oth.	1.gl	-oth.
!!LO:PB:g=original
=40||	=40||	=40||	=40||	=40||	=40||	=40||	=40||
*M2/2	*	*M2/2	*	*M2/2	*	*M2/2	*
*met(C|)	*	*met(C|)	*	*met(C|)	*Xedit	*met(C|)	*
2.G	Ple-	1r	.	[1B	Ple-	1r	.
8FL	.	.	.	.	.	.	.
8EJ	.	.	.	.	.	.	.
=41	=41	=41	=41	=41	=41	=41	=41
*lig	*	*	*	*	*	*	*
2D	.	1r	.	1B_	.	1r	.
2E	.	.	.	.	.	.	.
*Xlig	*	*	*	*	*	*	*
=42	=42	=42	=42	=42	=42	=42	=42
4D	.	1r	.	1B_	.	1r	.
4.BB	.	.	.	.	.	.	.
8C	.	.	.	.	.	.	.
4D	.	.	.	.	.	.	.
=43	=43	=43	=43	=43	=43	=43	=43
2GG	-ni	1r	.	1B]	.	1r	.
4r	.	.	.	.	.	.	.
4G	sunt	.	.	.	.	.	.
=44	=44	=44	=44	=44	=44	=44	=44
*	*edit	*	*	*	*	*	*
2.A	ce-	1r	.	2.c	-ni	1r	.
4F	.	.	.	4A	.	.	.
=45	=45	=45	=45	=45	=45	=45	=45
2G	.	1r	.	2B	sunt	1r	.
2A	-li,	.	.	4r	.	.	.
*	*	*	*	*	*edit	*	*
.	.	.	.	4c	ce-	.	.
!!LO:LB:g=original
=46	=46	=46	=46	=46	=46	=46	=46
4r	.	1r	.	4B	.	1r	.
2G	ce-	.	.	4G	.	.	.
.	.	.	.	2A	.	.	.
4F	.	.	.	.	.	.	.
=47	=47	=47	=47	=47	=47	=47	=47
2G	.	1r	.	2B	-li,	1r	.
2A	-li,	.	.	4r	.	.	.
*	*	*	*	*	*Xedit	*	*
.	.	.	.	4c	ce-	.	.
=48	=48	=48	=48	=48	=48	=48	=48
4r	.	1r	.	4B	.	1r	.
*	*Xedit	*	*	*	*	*	*
2G	ce-	.	.	4G	.	.	.
.	.	.	.	2A	.	.	.
4F	.	.	.	.	.	.	.
=49	=49	=49	=49	=49	=49	=49	=49
4G	.	1r	.	4B	.	1r	.
4E	.	.	.	4c	.	.	.
4D	.	.	.	4B	.	.	.
[4E	.	.	.	[4c	.	.	.
=50	=50	=50	=50	=50	=50	=50	=50
4E]	.	1r	.	4c]	.	1r	.
4D	.	.	.	2B	.	.	.
4.C	.	.	.	.	.	.	.
.	.	.	.	4A	.	.	.
8BB	.	.	.	.	.	.	.
=51	=51	=51	=51	=51	=51	=51	=51
*	*	*	*	*lig	*	*	*
4.GG	.	1r	.	[1B	-li	1r	.
8AA	.	.	.	.	.	.	.
4BB	.	.	.	.	.	.	.
4C	.	.	.	.	.	.	.
!!LO:LB:g=original
=52	=52	=52	=52	=52	=52	=52	=52
4D	.	1r	.	1B]	.	1r	.
4.E	.	.	.	.	.	.	.
8F	.	.	.	.	.	.	.
4G	.	.	.	.	.	.	.
=53	=53	=53	=53	=53	=53	=53	=53
8AL	.	1r	.	1A	.	1r	.
*	*	*	*	*Xlig	*	*	*
8G	.	.	.	.	.	.	.
8F	.	.	.	.	.	.	.
8EJ	.	.	.	.	.	.	.
2F	.	.	.	.	.	.	.
=54	=54	=54	=54	=54	=54	=54	=54
*	*	*	*	*	*edit	*	*
2G	-li	1r	.	4.G	ple-	[1b	Ple-
.	.	.	.	8A	.	.	.
2r	.	.	.	4B	.	.	.
.	.	.	.	4c	.	.	.
=55	=55	=55	=55	=55	=55	=55	=55
1r	.	1r	.	4d	.	1b]	.
.	.	.	.	4.e	.	.	.
.	.	.	.	8f	.	.	.
.	.	.	.	4g	.	.	.
=56	=56	=56	=56	=56	=56	=56	=56
2r	.	1r	.	8aL	.	1a	-ni
.	.	.	.	8g	.	.	.
.	.	.	.	8f	.	.	.
.	.	.	.	8eJ	.	.	.
2D	et	.	.	2f	-ni	.	.
=57	=57	=57	=57	=57	=57	=57	=57
4E	.	1r	.	2g	sunt	4g	sunt
2G	ter-	.	.	.	.	4.b	ce-
.	.	.	.	4.d	ce-	.	.
.	.	.	.	.	.	8cc	.
4F	.	.	.	.	.	[4dd	.
.	.	.	.	8c	.	.	.
!!LO:LB:g=original
=58	=58	=58	=58	=58	=58	=58	=58
4.G	.	1r	.	8BL	.	8dd]L	.
.	.	.	.	8AJ	.	8cc	.
.	.	.	.	2G	.	8b	.
8F	.	.	.	.	.	8aJ	.
8EL	.	.	.	.	.	4g	.
8DJ	.	.	.	.	.	.	.
4C	.	.	.	4c	.	[4a	.
=59	=59	=59	=59	=59	=59	=59	=59
4G	.	1r	.	4B	.	4a]	.
4E	.	.	.	4G	.	2g	.
2D	.	.	.	2A	.	.	.
.	.	.	.	.	.	4f#i	.
=60	=60	=60	=60	=60	=60	=60	=60
*	*edit	*	*	*	*	*	*
2E	-ra,	1r	.	2G	-li,	2g	-li
[2D	ce-	.	.	4r	.	2r	.
.	.	.	.	[4B	ce-	.	.
=61	=61	=61	=61	=61	=61	=61	=61
4D]	.	1r	.	2B]	.	1r	.
2.E	-li,	.	.	.	.	.	.
.	.	.	.	2c	-li,	.	.
=62	=62	=62	=62	=62	=62	=62	=62
*	*	*	*	*	*Xedit	*	*
4D	.	1r	.	2.d	et	1b	et
2G	et	.	.	.	.	.	.
4E	.	.	.	[4e	ter-	.	.
=63	=63	=63	=63	=63	=63	=63	=63
*	*	*	*	*	*	*	*edit
2A	ter-	1r	.	2e]	.	2cc	ter-
*	*	*	*	*	*edit	*	*
4.D	.	.	.	2d	-ra,	2dd	-ra,
8E	.	.	.	.	.	.	.
!!LO:LB:g=original
=64	=64	=64	=64	=64	=64	=64	=64
2F	.	1r	.	2A	ter-	1r	.
4G	.	.	.	4B	.	.	.
[4A	.	.	.	[4c	.	.	.
=65	=65	=65	=65	=65	=65	=65	=65
*	*	*	*	*	*	*	*Xedit
8A]L	.	1r	.	4c]	.	2a	ter-
8EJ	.	.	.	.	.	.	.
4F	.	.	.	8BL	.	.	.
.	.	.	.	8AJ	.	.	.
*	*Xedit	*	*	*	*	*	*
2G	-ra	.	.	4G	.	4b	.
.	.	.	.	4E	.	[4cc	.
=66	=66	=66	=66	=66	=66	=66	=66
1r	.	1r	.	2F	.	4cc]	.
.	.	.	.	.	.	8bL	.
.	.	.	.	.	.	8aJ	.
.	.	.	.	4G	.	4g	.
.	.	.	.	[4A	.	4e	.
=67	=67	=67	=67	=67	=67	=67	=67
1r	.	1r	.	4A]	.	2f	.
.	.	.	.	8GL	.	.	.
.	.	.	.	8FJ	.	.	.
.	.	.	.	4E	.	4g	.
.	.	.	.	4F	.	[4a	.
=68	=68	=68	=68	=68	=68	=68	=68
1r	.	1r	.	4D	-ra,	4a]	.
.	.	.	.	2d	ter-	8gL	.
.	.	.	.	.	.	8fJ	.
.	.	.	.	.	.	2e	-ra
.	.	.	.	4c#i	.	.	.
=69	=69	=69	=69	=69	=69	=69	=69
*	*	*	*	*	*Xedit	*	*
1r	.	1r	.	2d	-ra	4r	.
*	*	*	*	*	*	*	*edit
.	.	.	.	.	.	4dd	glo-
.	.	.	.	4r	.	4.b	.
.	.	.	.	4d	glo-	.	.
.	.	.	.	.	.	8cc	.
!!LO:PB:g=original
=70	=70	=70	=70	=70	=70	=70	=70
1r	.	1r	.	4.B	.	4.dd	.
.	.	.	.	8c	.	8cc	.
.	.	.	.	4.d	.	4.a	.
.	.	.	.	8c	.	8g	.
=71	=71	=71	=71	=71	=71	=71	=71
1r	.	1r	.	4A	.	8fL	.
.	.	.	.	.	.	8eJ	.
.	.	.	.	4.d	.	4.f	.
.	.	.	.	8cL	.	8eL	.
.	.	.	.	8B	.	8d	.
.	.	.	.	8AJ	.	8cJ	.
=72	=72	=72	=72	=72	=72	=72	=72
1r	.	1r	.	4d	.	8BL	.
.	.	.	.	.	.	8AJ	.
.	.	.	.	4c	.	2a	-ri-
.	.	.	.	2B	-ri-	.	.
.	.	.	.	.	.	4g#i	.
=73	=73	=73	=73	=73	=73	=73	=73
4r	.	1r	.	2A	-a	2a	-a,
4A	glo-	.	.	.	.	.	.
4G	.	.	.	4B	.	2r	.
*	*	*	*	*	*edit	*	*
4F	.	.	.	[4d	tu-	.	.
=74	=74	=74	=74	=74	=74	=74	=74
2E	.	1r	.	4d]	.	1r	.
.	.	.	.	4c	.	.	.
4D	.	.	.	2d	.	.	.
[4F	.	.	.	.	.	.	.
=75	=75	=75	=75	=75	=75	=75	=75
4F]	.	1r	.	2A	-a,	4r	.
*	*	*	*	*	*	*	*Xedit
8EL	.	.	.	.	.	4a	glo-
8DJ	.	.	.	.	.	.	.
4E	.	.	.	2r	.	4g	.
[4D	.	.	.	.	.	4f	.
!!LO:LB:g=original
=76	=76	=76	=76	=76	=76	=76	=76
4D]	.	1r	.	1r	.	2e	.
4C	-ri-	.	.	.	.	.	.
2D	-a	.	.	.	.	4d	.
.	.	.	.	.	.	[4f	.
=77	=77	=77	=77	=77	=77	=77	=77
2AA	tu-	1r	.	4r	.	4f]	.
.	.	.	.	4A	tu-	8eL	.
.	.	.	.	.	.	8dJ	.
4C	.	.	.	4G	.	4e	.
4D	.	.	.	4F	.	[4d	-ri-
=78	=78	=78	=78	=78	=78	=78	=78
*	*edit	*	*	*	*	*	*
2AA	-a,	1r	.	2E	.	4d]	.
.	.	.	.	.	.	4c#i	.
4BB	.	.	.	2D	-a,	4.d	-a
[4D	glo-	.	.	.	.	.	.
.	.	.	.	.	.	8f	.
=79	=79	=79	=79	=79	=79	=79	=79
*	*	*	*	*	*	*	*edit
4D]	.	1r	.	4r	.	2e	tu-
4C	.	.	.	4G	glo-	.	.
4D	.	.	.	4F	.	2d	-a
4BB	.	.	.	4D	.	.	.
=80	=80	=80	=80	=80	=80	=80	=80
2C	-ri-	1r	.	2E	.	4r	.
.	.	.	.	.	.	4g	glo-
2D	-a	.	.	4D	.	4f	.
.	.	.	.	4F	.	4d	.
=81	=81	=81	=81	=81	=81	=81	=81
1r	.	1r	.	4G	.	2e	.
.	.	.	.	4A	.	.	.
.	.	.	.	4B	.	4.d	.
.	.	.	.	4c	-ri-	.	.
.	.	.	.	.	.	8e	.
!!LO:LB:g=original
=82	=82	=82	=82	=82	=82	=82	=82
1r	.	1r	.	2d	-a	4.f	.
.	.	.	.	.	.	8g	.
*	*	*	*	*	*Xedit	*	*
.	.	.	.	2D	tu-	4a	.
.	.	.	.	.	.	4b	.
=83	=83	=83	=83	=83	=83	=83	=83
1r	.	1r	.	4E	.	4cc	-ri-
.	.	.	.	4D	.	2dd	-a
.	.	.	.	4.G	.	.	.
*	*	*	*	*	*	*	*Xedit
.	.	.	.	.	.	[4d	tu-
.	.	.	.	8A	.	.	.
=84	=84	=84	=84	=84	=84	=84	=84
4.GG	tu-	1r	.	4B	.	4d]	.
.	.	.	.	4c	.	4e	.
8AA	.	.	.	.	.	.	.
4BB	.	.	.	4B	.	4d	.
8CL	.	.	.	[4e	.	[4g	.
8DJ	.	.	.	.	.	.	.
=85	=85	=85	=85	=85	=85	=85	=85
8EL	.	1r	.	4e]	.	8g]L	.
8FJ	.	.	.	.	.	8aJ	.
4G	.	.	.	4d	.	4b	.
4A	.	.	.	4c	.	4cc	.
[4D	.	.	.	[4d	.	[4a	.
=86	=86	=86	=86	=86	=86	=86	=86
8D]L	.	1r	.	4d]	.	4a]	.
8EJ	.	.	.	.	.	.	.
4G	.	.	.	4B	.	2g	.
2D	.	.	.	2A	.	.	.
.	.	.	.	.	.	4f#i	.
=87	=87	=87	=87	=87	=87	=87	=87
*	*Xedit	*	*	*	*	*	*
1GGl	-a.	1r	.	1Gl	-a.	1gl	-a.
!!LO:LB:g=original
=88||	=88||	=88||	=88||	=88||	=88||	=88||	=88||
!!LO:TX:a:t=C3
*M3/2	*	*M3/2	*	*M3/2	*	*M3/2	*
*met(C3)	*	*met(C3)	*	*met(C3)	*	*met(C3)	*
1.D	O-	1.D	O-	1.r	.	1.d	O-
=89	=89	=89	=89	=89	=89	=89	=89
*lig	*	*	*	*	*	*col	*
2BB	-san-	1.G	-san-	1.r	.	1d	-san-
2GG	.	.	.	.	.	.	.
*Xlig	*	*	*	*	*	*	*
2BB	.	.	.	.	.	2g	.
=90	=90	=90	=90	=90	=90	=90	=90
2C	.	1.A	.	1.r	.	2e	.
1D	.	.	.	.	.	1f	.
*	*	*	*	*	*	*Xcol	*
=91	=91	=91	=91	=91	=91	=91	=91
1GG	-na,	1B	-na,	1d	O-	1.g	-na,
*	*edit	*	*edit	*	*	*	*
2G	o-	2B	o-	2B	.	.	.
=92	=92	=92	=92	=92	=92	=92	=92
*	*	*	*	*lig	*	*	*
2.A	-san-	2.c	-san-	2A	-san-	1.r	.
.	.	.	.	1c	.	.	.
*	*	*	*	*Xlig	*	*	*
4E	.	4B	.	.	.	.	.
2F	.	2A	.	.	.	.	.
=93	=93	=93	=93	=93	=93	=93	=93
*	*	*	*	*	*	*	*edit
1.G	-na,	1G	-na,	1B	.	1dd	o-
.	.	2d	o-	2G	.	2b	.
=94	=94	=94	=94	=94	=94	=94	=94
*lig	*	*	*	*	*	*lig	*
*col	*	*	*	*	*	*	*
2E	o-	1e	-san-	1G	-na,	2g	-san-
2C	.	.	.	.	.	2.cc	.
*Xlig	*	*	*	*	*	*Xlig	*
*lig	*	*	*	*	*	*	*
[2G	-san-	2d	.	2r	.	.	.
.	.	.	.	.	.	4b	.
!!LO:LB:g=original
=95	=95	=95	=95	=95	=95	=95	=95
*	*	*lig	*	*	*edit	*	*
2G]	.	2B	.	2G	in	1b	.
1F	.	1c	.	1A	.	.	.
*Xlig	*	*Xlig	*	*	*	*	*
.	.	.	.	.	.	2a	.
=96	=96	=96	=96	=96	=96	=96	=96
*lig	*	*	*	*lig	*	*	*
[1.G	-na	1.B	-na,	2G	ex-	1.b	-na,
.	.	.	.	2.d	.	.	.
*	*	*	*	*Xlig	*	*	*
.	.	.	.	4c	.	.	.
=97	=97	=97	=97	=97	=97	=97	=97
*	*	*lig	*	*	*	*	*
1G]	.	2G	in	2B	.	1.r	.
.	.	2.d	.	2.A	-cel-	.	.
*	*	*Xlig	*	*	*	*	*
2D	.	.	.	.	.	.	.
*Xlig	*	*	*	*	*	*	*
*Xcol	*	*	*	*	*	*	*
.	.	4c	.	4G	.	.	.
=98	=98	=98	=98	=98	=98	=98	=98
2GG	in	2B	ex-	1G	.	1.r	.
1D	ex-	2.A	.	.	.	.	.
.	.	.	.	2F#i	.	.	.
.	.	4G	.	.	.	.	.
=99	=99	=99	=99	=99	=99	=99	=99
*lig	*	*	*	*	*	*	*Xedit
2BB	-cel-	1G	-cel-	2G	-sis,	2.dd	in
1AA	.	.	.	2r	.	.	.
.	.	.	.	.	.	4cc	.
*Xlig	*	*	*	*	*Xedit	*	*
.	.	2F#i	.	2c	in	2a	ex-
=100	=100	=100	=100	=100	=100	=100	=100
1GG	-sis,	1G	-sis,	2B	ex-	1b	-cel-
.	.	.	.	1d	-cel-	.	.
2D	ex-	2D	ex-	.	.	2a	.
=101	=101	=101	=101	=101	=101	=101	=101
*	*	*lig	*	*	*	*	*
2E	-cel-	2G	-cel-	2c	.	1g	.
*	*	*	*	*	*edit	*	*
1D	.	1A	.	1d	-sis,	.	.
*	*	*Xlig	*	*	*	*	*
.	.	.	.	.	.	2f#i	.
!!LO:PB:g=original
=102	=102	=102	=102	=102	=102	=102	=102
2.GG	-sis,	1.G	-sis,	1B	in	1g	-sis,
4AA	.	.	.	.	.	.	.
2BB	.	.	.	2d	ex-	2r	.
=103	=103	=103	=103	=103	=103	=103	=103
*	*	*	*	*	*	*	*edit
2.C	in	1.r	.	2.e	-cel-	2.g	in
4D	.	.	.	4d	.	4f	.
4E	.	.	.	2c	.	2e	.
4F	.	.	.	.	.	.	.
=104	=104	=104	=104	=104	=104	=104	=104
*	*	*	*Xedit	*	*	*	*
1G	ex-	2G	in	1B	.	1d	ex-
.	.	1B	ex-	.	.	.	.
2E	-cel-	.	.	2G	-sis,	2g	.
=105	=105	=105	=105	=105	=105	=105	=105
1A	.	2.c	-cel-	1.r	.	2f	-cel-
.	.	.	.	.	.	2.e	.
.	.	4A	.	.	.	.	.
2G	.	2B	.	.	.	.	.
.	.	.	.	.	.	4d	.
=106	=106	=106	=106	=106	=106	=106	=106
*lig	*	*	*	*lig	*	*	*
2F	.	1d	.	2A	in	2d	.
1E	.	.	.	2B	.	2.g	.
*Xlig	*	*	*	*Xlig	*	*	*
.	.	2c	.	2G	.	.	.
.	.	.	.	.	.	4e	.
=107	=107	=107	=107	=107	=107	=107	=107
*	*	*	*edit	*	*	*	*
1D	-sis,	1d	-sis,-	1A	.	2f	-sis,
.	.	.	.	.	.	1a	ex-
2F	ex-	2A	-ex-	2r	.	.	.
=108	=108	=108	=108	=108	=108	=108	=108
*lig	*	*lig	*	*lig	*	*	*
*col	*	*	*	*	*	*	*
2G	-cel-	2B-i	-cel-	1.d	ex-	2d	-cel-
2F	.	2.A	.	.	.	2.f	.
*Xlig	*	*Xlig	*	*	*	*	*
*lig	*	*	*	*	*	*	*
[2D	.	.	.	.	.	.	.
.	.	4G	.	.	.	4e	.
!!LO:LB:g=original
=109	=109	=109	=109	=109	=109	=109	=109
*	*	*lig	*	*	*	*	*
2D]	.	2F	.	1.A	.	1d	.
*	*	*	*	*Xlig	*	*	*
1AA	.	1E	.	.	.	.	.
*Xlig	*	*Xlig	*	*	*	*	*
.	.	.	.	.	.	2c#i	.
=110	=110	=110	=110	=110	=110	=110	=110
*	*	*	*	*col	*	*	*
[1.D	.	1.D	-sis,	[1.f	-cel-	1d	-sis,
.	.	.	.	.	.	2r	.
=111	=111	=111	=111	=111	=111	=111	=111
2D]	.	1.r	.	2f]	.	1dd	o-
1A	-sis,	.	.	1e	-sis,	.	.
*Xcol	*	*	*	*	*	*	*
.	.	.	.	.	.	2cc	.
=112	=112	=112	=112	=112	=112	=112	=112
*	*	*col	*	*lig	*	*	*
*	*	*lig	*	*	*	*	*
1.r	.	[1.f	o-	[1.d	o-	1dd	.
.	.	.	.	.	.	[2a	-san-
=113	=113	=113	=113	=113	=113	=113	=113
1.r	.	2f]	.	2d]	.	4a]	.
.	.	.	.	.	.	4b	.
.	.	1e	.	1A	.	4cc	.
*	*	*Xlig	*	*Xcol	*	*	*
*	*	*Xcol	*	*Xlig	*	*	*
.	.	.	.	.	.	4b	.
.	.	.	.	.	.	4a	.
.	.	.	.	.	.	4g	.
=114	=114	=114	=114	=114	=114	=114	=114
[1.D	o-	1d	-san-	1.A	-san-	2.f	.
.	.	.	.	.	.	4g	.
.	.	2f	-na,	.	.	2a	.
=115	=115	=115	=115	=115	=115	=115	=115
1.D]	.	2f	in	2.F	-na,	1d	-na,
.	.	2f	ex-	.	.	.	.
.	.	.	.	4G	.	.	.
.	.	2f	-cel-	2A	in	2dd	in
!!LO:LB:g=original
=116	=116	=116	=116	=116	=116	=116	=116
*lig	*	*	*	*	*	*	*
2E	-san-	2e	.	2.G	ex-	2cc	ex-
2.G	.	1d	.	.	.	2.b	.
*Xlig	*	*	*	*	*	*	*
.	.	.	.	4A	.	.	.
.	.	.	.	2B	.	.	.
4F	.	.	.	.	.	4a	.
=117	=117	=117	=117	=117	=117	=117	=117
*lig	*	*lig	*	*	*	*	*
2A	.	2c	.	4c	.	1a	-cel-
.	.	.	.	4d	.	.	.
1E	.	1B	.	1e	-cel-	.	.
*Xlig	*	*Xlig	*	*	*	*	*
.	.	.	.	.	.	2g	.
=118	=118	=118	=118	=118	=118	=118	=118
*lig	*	*	*	*lig	*	*lig	*
*col	*	*	*	*	*	*	*
1F	.	1A	.	2c	.	2a	.
.	.	.	.	2A	.	2cc	.
*	*	*	*	*Xlig	*	*Xlig	*
[2G	.	2G	.	2B	.	2b	.
=119	=119	=119	=119	=119	=119	=119	=119
*	*	*lig	*	*	*	*	*
2G]	.	2B	.	1.d	.	1g	.
1D	.	1A	.	.	.	.	.
*Xcol	*	*	*	*	*	*	*
*Xlig	*	*Xlig	*	*	*	*	*
.	.	.	.	.	.	2f#i	.
=120	=120	=120	=120	=120	=120	=120	=120
1.E	-na,	1G	-sis,	1B	-sis,	1.g	-sis,
.	.	2B	in	2G	in	.	.
=121	=121	=121	=121	=121	=121	=121	=121
*lig	*Xedit	*	*	*	*	*	*
2D	in	1d	ex-	2.A	ex-	2f	in
1A	.	.	.	.	.	1e	.
*Xlig	*	*	*	*	*	*	*
.	.	.	.	4B	.	.	.
.	.	2c	.	2c	.	.	.
=122	=122	=122	=122	=122	=122	=122	=122
*	*	*	*	*	*	*lig	*
1.D	ex-	1.d	-cel-	1A	-cel-	2d	ex-
.	.	.	.	.	.	2.f	.
*	*	*	*	*	*	*Xlig	*
.	.	.	.	2F	.	.	.
.	.	.	.	.	.	4g	.
!!LO:LB:g=original
=123	=123	=123	=123	=123	=123	=123	=123
*lig	*	*lig	*	*	*	*	*
2AA	-cel-	2c	.	2E	.	1a	-cel-
*	*	*	*	*col	*	*	*
1E	.	1B	.	1G	-sis,	.	.
*Xlig	*	*Xlig	*	*Xcol	*	*	*
.	.	.	.	.	.	2g	.
=124	=124	=124	=124	=124	=124	=124	=124
*	*edit	*	*	*	*	*	*
1F	-sis,	1.A	-sis,	2r	.	1a	-sis,
.	.	.	.	2r	.	.	.
2D	in	.	.	2F	in	2r	.
=125	=125	=125	=125	=125	=125	=125	=125
*	*	*	*	*	*	*lig	*
*	*	*	*	*col	*	*col	*
1.C	ex-	1.e	in	1G	ex-	1cc	ex-
*	*	*	*	*Xcol	*	*	*
.	.	.	.	2c	.	[2g	.
=126	=126	=126	=126	=126	=126	=126	=126
*	*	*	*	*lig	*	*	*
*	*	*col	*	*col	*	*	*
1G	-cel-	[1.d	ex-	2B	-cel-	2g]	.
.	.	.	.	2G	.	2b	.
*	*	*	*	*Xcol	*	*	*
*	*	*	*	*Xlig	*	*	*
2F	.	.	.	2A	.	2a	.
*	*	*	*	*	*	*Xcol	*
*	*	*	*	*	*	*Xlig	*
=127	=127	=127	=127	=127	=127	=127	=127
*	*	*	*	*lig	*	*	*
*	*	*	*	*col	*	*	*
1G	.	2d]	.	2G	.	2.b	-cel-
.	.	1d	-cel-	2g	.	.	.
*	*	*Xcol	*	*Xlig	*	*	*
.	.	.	.	.	.	4cc	.
2D	.	.	.	[2f	.	2dd	.
=128	=128	=128	=128	=128	=128	=128	=128
1F	.	2c	.	1f]	.	1a	.
.	.	1d	.	.	.	.	.
2G	.	.	.	2d	.	2b	.
*	*	*	*	*Xcol	*	*	*
=129	=129	=129	=129	=129	=129	=129	=129
2E	.	2G	.	2c	.	1g	.
1D	.	1A	.	1d	.	.	.
.	.	.	.	.	.	2f#i	.
=130	=130	=130	=130	=130	=130	=130	=130
*	*Xedit	*	*Xedit	*	*Xedit	*	*
1.GGl	-sis,	1.Gl	-sis.	1.dl	-sis.	1.gl	-sis.
!!LO:PB:g=original
=131||	=131||	=131||	=131||	=131||	=131||	=131||	=131||
*M2/2	*	*M2/2	*	*M2/2	*	*M2/2	*
*met(C|)	*	*met(C|)	*	*met(C|)	*	*met(C|)	*
4.D	Be-	1r	.	[1d	Be-	1r	.
8E	.	.	.	.	.	.	.
4F	.	.	.	.	.	.	.
4G	-ne-	.	.	.	.	.	.
=132	=132	=132	=132	=132	=132	=132	=132
4F	.	1r	.	2d]	.	1r	.
4G	-di-	.	.	.	.	.	.
4E	.	.	.	2c	-ne-	.	.
4A	-ctus,	.	.	.	.	.	.
=133	=133	=133	=133	=133	=133	=133	=133
*	*	*	*	*	*	*	*Xedit
1r	.	1r	.	2d	-di-	4.d	Be-
.	.	.	.	.	.	8e	.
.	.	.	.	4A	.	4f	.
.	.	.	.	4B	.	4g	-ne-
=134	=134	=134	=134	=134	=134	=134	=134
1r	.	1r	.	4A	.	4f	.
.	.	.	.	4B	.	4g	-di-
.	.	.	.	2c	.	4e	.
.	.	.	.	.	.	[4a	.
=135	=135	=135	=135	=135	=135	=135	=135
1r	.	1r	.	4d	.	4a]	.
.	.	.	.	4B	.	2g	.
.	.	.	.	2A	.	.	.
.	.	.	.	.	.	4f#i	.
=136	=136	=136	=136	=136	=136	=136	=136
*	*edit	*	*	*	*	*	*
4.GG	be-	1r	.	4.G	.	2g	-ctus
8AA	.	.	.	8F	.	.	.
4BB	.	.	.	4G	.	2r	.
4C	-ne-	.	.	4E	.	.	.
!!LO:LB:g=original
=137	=137	=137	=137	=137	=137	=137	=137
4AA	.	1r	.	4A	.	1r	.
2D	-di-	.	.	4F	.	.	.
.	.	.	.	2E	-ctus	.	.
4C#i	.	.	.	.	.	.	.
=138	=138	=138	=138	=138	=138	=138	=138
2D	-ctus	1r	.	2r	.	1r	.
2r	.	.	.	4.D	qui	.	.
.	.	.	.	8E	.	.	.
=139	=139	=139	=139	=139	=139	=139	=139
*	*	*	*	*	*	*lig	*
1r	.	1r	.	4F	.	2d	qui
.	.	.	.	4G	.	.	.
.	.	.	.	4D	.	2f	.
*	*	*	*	*	*	*Xlig	*
.	.	.	.	[4d	ve-	.	.
=140	=140	=140	=140	=140	=140	=140	=140
1r	.	1r	.	4d]	.	2e	ve-
.	.	.	.	4c#i	.	.	.
.	.	.	.	2d	-nit	[2d	.
=141	=141	=141	=141	=141	=141	=141	=141
*	*Xedit	*	*	*	*	*	*
4.D	qui	1r	.	1r	.	4d]	.
.	.	.	.	.	.	4B	.
8E	.	.	.	.	.	.	.
4F	.	.	.	.	.	4A	.
4G	.	.	.	.	.	4d	.
=142	=142	=142	=142	=142	=142	=142	=142
4E	.	1r	.	1r	.	4e	.
2A	ve-	.	.	.	.	2f	.
8GL	.	.	.	.	.	[4d	.
8FJ	.	.	.	.	.	.	.
!!LO:LB:g=original
=143	=143	=143	=143	=143	=143	=143	=143
2E	-nit	1r	.	2G	in	4d]	.
.	.	.	.	.	.	4c#i	.
[2D	in	.	.	2A	no-	2d	-nit
=144	=144	=144	=144	=144	=144	=144	=144
4D]	.	1r	.	2B	-mi-	1r	.
2E	no-	.	.	.	.	.	.
.	.	.	.	2c	-ne	.	.
[4F	-mi-	.	.	.	.	.	.
=145	=145	=145	=145	=145	=145	=145	=145
*	*	*	*	*	*edit	*	*
4F]	.	1r	.	4A	Do-	1r	.
2G	-ne	.	.	2B	.	.	.
*	*edit	*	*	*	*	*	*
4E	Do-	.	.	4c	.	.	.
=146	=146	=146	=146	=146	=146	=146	=146
4F	.	1r	.	4d	.	1r	.
4D	.	.	.	4B	.	.	.
4E	.	.	.	4c	.	.	.
4C	.	.	.	[4A	.	.	.
=147	=147	=147	=147	=147	=147	=147	=147
4D	.	1r	.	4A]	.	1r	.
4BB	.	.	.	2G	.	.	.
2AA	-mi-	.	.	.	.	.	.
.	.	.	.	4F#i	-mi-	.	.
=148	=148	=148	=148	=148	=148	=148	=148
4GG	-ni,	1r	.	2G	-ni,	2g	in
*lig	*	*	*	*	*	*	*
2C	Do-	.	.	.	.	.	.
.	.	.	.	2r	.	2a	no-
[4D	.	.	.	.	.	.	.
!!LO:LB:g=original
=149	=149	=149	=149	=149	=149	=149	=149
4D]	.	1r	.	2r	.	2b	-mi-
*Xlig	*	*	*	*	*	*	*
*lig	*	*	*	*	*	*	*
2E	.	.	.	.	.	.	.
.	.	.	.	2c	in	2cc	-ne
[4F	.	.	.	.	.	.	.
=150	=150	=150	=150	=150	=150	=150	=150
*	*	*	*	*	*	*	*edit
4F]	.	1r	.	2d	no-	4a	Do-
*Xlig	*	*	*	*	*	*	*
2G	-mi-	.	.	.	.	2b	.
.	.	.	.	2e	-mi-	.	.
8FL	.	.	.	.	.	4cc	.
8EJ	.	.	.	.	.	.	.
=151	=151	=151	=151	=151	=151	=151	=151
2D	-ni,	1r	.	2f	-ne	2dd	.
*	*	*	*	*	*Xedit	*	*
2r	.	.	.	4d	Do-	4b	.
.	.	.	.	[4e	.	[4cc	.
=152	=152	=152	=152	=152	=152	=152	=152
1r	.	1r	.	4e]	.	4cc]	.
.	.	.	.	4f	.	8bL	.
.	.	.	.	.	.	8aJ	.
.	.	.	.	2g	.	4b	.
.	.	.	.	.	.	[4g	.
=153	=153	=153	=153	=153	=153	=153	=153
2r	.	1r	.	4e	.	4g]	.
.	.	.	.	2f	.	2a	.
4r	.	.	.	.	.	.	.
4D	Do-	.	.	8eL	.	8gL	.
.	.	.	.	8dJ	.	8fJ	.
=154	=154	=154	=154	=154	=154	=154	=154
2A	.	1r	.	2c	.	2e	.
4.D	.	.	.	2d	.	8dL	.
.	.	.	.	.	.	8e	.
.	.	.	.	.	.	8f	.
8E	.	.	.	.	.	8gJ	.
!!LO:LB:g=original
=155	=155	=155	=155	=155	=155	=155	=155
8FL	.	1r	.	4c	.	4a	.
8E	.	.	.	.	.	.	.
8D	.	.	.	2d	.	2b	.
8CJ	.	.	.	.	.	.	.
4.BB	-mi-	.	.	.	.	.	.
.	.	.	.	8cL	.	[4g	.
8C	.	.	.	8BJ	.	.	.
=156	=156	=156	=156	=156	=156	=156	=156
*	*	*	*	*	*edit	*	*
2D	-ni,	1r	.	2A	-mi-	4g]	.
.	.	.	.	.	.	4f#i	-mi-
4r	.	.	.	[2G	-ni,	2g	-ni,
[4E	Do-	.	.	.	.	.	.
=157	=157	=157	=157	=157	=157	=157	=157
4E]	.	1r	.	4G]	.	1r	.
2F	.	.	.	2A	Do-	.	.
8EL	.	.	.	8GL	.	.	.
8DJ	.	.	.	8FJ	.	.	.
=158	=158	=158	=158	=158	=158	=158	=158
2C	.	1r	.	2E	.	1r	.
2D	.	.	.	8DL	.	.	.
.	.	.	.	8E	.	.	.
.	.	.	.	8F	.	.	.
.	.	.	.	8GJ	.	.	.
=159	=159	=159	=159	=159	=159	=159	=159
4C	.	1r	.	4A	.	1r	.
4D	.	.	.	2B	.	.	.
4BB	.	.	.	.	.	.	.
4C	.	.	.	[4G	.	.	.
=160	=160	=160	=160	=160	=160	=160	=160
2AA	-mi-	1r	.	4G]	.	1r	.
.	.	.	.	4F#i	-mi-	.	.
2GG	-ni,	.	.	4.G	-ni,	.	.
.	.	.	.	8A	.	.	.
!!LO:PB:g=original
=161	=161	=161	=161	=161	=161	=161	=161
*	*	*	*	*	*	*	*Xedit
1r	.	1r	.	8BL	.	2dd	Do-
.	.	.	.	8cJ	.	.	.
.	.	.	.	4d	.	.	.
.	.	.	.	4e	Do-	4cc	.
.	.	.	.	[4f	.	[4dd	.
=162	=162	=162	=162	=162	=162	=162	=162
2r	.	1r	.	8f]L	.	4dd]	.
.	.	.	.	8dJ	.	.	.
.	.	.	.	2g	.	8ccL	.
.	.	.	.	.	.	8bJ	.
2D	in	.	.	.	.	2a	.
.	.	.	.	4f#i	.	.	.
=163	=163	=163	=163	=163	=163	=163	=163
2.E	no-	1r	.	2.g	.	4.g	.
.	.	.	.	.	.	8a	.
.	.	.	.	.	.	8bL	.
.	.	.	.	.	.	8ccJ	.
4F	.	.	.	4f	.	[4dd	.
=164	=164	=164	=164	=164	=164	=164	=164
4G	.	1r	.	2e	.	4dd]	.
4A	.	.	.	.	.	4cc	.
4F	.	.	.	[2d	.	4a	.
[4G	.	.	.	.	.	[4b	.
=165	=165	=165	=165	=165	=165	=165	=165
4G]	.	1r	.	4d]	.	4b]	.
4A	-mi-	.	.	4c	.	2a	.
2E	-ne	.	.	2B	-mi-	.	.
.	.	.	.	.	.	4g#i	-mi-
=166	=166	=166	=166	=166	=166	=166	=166
*	*	*	*	*	*	*	*edit
4r	.	1r	.	1A	-ni,	1a	-ni,
*	*Xedit	*	*	*	*	*	*
4.F	Do-	.	.	.	.	.	.
8G	.	.	.	.	.	.	.
[4A	.	.	.	.	.	.	.
!!LO:LB:g=original
=167	=167	=167	=167	=167	=167	=167	=167
8A]L	.	1r	.	1r	.	4r	.
8EJ	.	.	.	.	.	.	.
4F	.	.	.	.	.	4a	in
4.G	.	.	.	.	.	2b	no-
8B	.	.	.	.	.	.	.
=168	=168	=168	=168	=168	=168	=168	=168
2A	.	1r	.	4r	.	2cc	-mi-
.	.	.	.	4A	in	.	.
2G	.	.	.	2B	no-	4dd	-ne
.	.	.	.	.	.	8ccL	.
.	.	.	.	.	.	8bJ	.
=169	=169	=169	=169	=169	=169	=169	=169
*	*	*	*	*	*Xedit	*	*
6F	-mi-	1r	.	2c	-mi-	2a	.
6G	.	.	.	.	.	.	.
6A	.	.	.	.	.	.	.
*	*edit	*	*	*	*	*	*
2D	-ni,	.	.	4.d	-ne	4.f	Do-
.	.	.	.	8c	.	8g	.
=170	=170	=170	=170	=170	=170	=170	=170
1r	.	1r	.	2A	.	8aL	.
.	.	.	.	.	.	8bJ	.
.	.	.	.	.	.	4.cc	.
.	.	.	.	4.F	Do-	.	.
.	.	.	.	.	.	8b	.
.	.	.	.	.	.	[4a	.
.	.	.	.	8G	.	.	.
=171	=171	=171	=171	=171	=171	=171	=171
1r	.	1r	.	8AL	.	4a]	.
.	.	.	.	8BJ	.	.	.
.	.	.	.	4.c	.	8gL	.
.	.	.	.	.	.	8fJ	.
.	.	.	.	.	.	4e	.
.	.	.	.	8d	.	.	.
.	.	.	.	[4e	.	[4g	.
=172	=172	=172	=172	=172	=172	=172	=172
4r	.	1r	.	4e]	.	4g]	.
4D	in	.	.	2d	.	4f	-mi-
2A	.	.	.	.	.	2e	-ni,
*	*	*	*	*	*edit	*	*
.	.	.	.	4c#i	-mi-	.	.
!!LO:LB:g=original
=173	=173	=173	=173	=173	=173	=173	=173
2B	.	1r	.	4d	-ni,	4.dd	Do-
.	.	.	.	4.g	Do-	.	.
.	.	.	.	.	.	8cc	.
4r	.	.	.	.	.	8bL	.
.	.	.	.	8fL	.	8aJ	.
[4G	no-	.	.	8e	.	[4b	.
.	.	.	.	8dJ	.	.	.
=174	=174	=174	=174	=174	=174	=174	=174
4G]	.	1r	.	2e	.	4b]	.
2A	-mi-	.	.	.	.	4.cc	.
.	.	.	.	4.f	.	.	.
.	.	.	.	.	.	8bL	.
[4D	-ne	.	.	.	.	8a	.
.	.	.	.	8e	.	8gJ	.
=175	=175	=175	=175	=175	=175	=175	=175
8D]L	.	1r	.	8dL	.	2a	.
8EJ	.	.	.	8cJ	.	.	.
4F	.	.	.	2d	.	.	.
2G	.	.	.	.	.	4.b	.
.	.	.	.	[4e	.	.	.
.	.	.	.	.	.	8a	.
=176	=176	=176	=176	=176	=176	=176	=176
4.C	Do-	1r	.	8e]L	.	8gL	.
.	.	.	.	8d	.	8fJ	.
.	.	.	.	8c	.	2g	.
8D	.	.	.	8BJ	.	.	.
4E	.	.	.	[2c	.	.	.
[4F	.	.	.	.	.	[4a	.
=177	=177	=177	=177	=177	=177	=177	=177
8F]L	.	1r	.	4c]	.	4a]	.
8EJ	.	.	.	.	.	.	.
4G	.	.	.	4B	.	2g	.
*	*	*	*	*	*Xedit	*	*
2D	-mi-	.	.	2A	-mi-	.	.
.	.	.	.	.	.	4f#i	-mi-
=178	=178	=178	=178	=178	=178	=178	=178
*	*	*	*	*	*	*	*Xedit
1GGl	-ni.	1r	.	1Gl	-ni.	1gl	-ni.
!!LO:TX:b:t=Osanna ut supra
==	==	==	==	==	==	==	==
*-	*-	*-	*-	*-	*-	*-	*-
!!!system-decoration: [*]
!!!RDF**kern: j = editorial accidental, optional, paren up
!!!RDF**kern: i = editorial accidental
!!!RDF**kern: l = terminal breve
!!!PTL: Gaspar van Weerbeke: Collected Works. I. Masses, Part 1
!!!PPR: American Institute of Musicology
!!!PC#: Corpus Mensurabilis Musicae 106/I.1
!!!PDT: 2016
!!!PED: Pavanello, Agnese
!!!YEC: Copyright 2016, Pavanello, Agnese
!!!YEM: CC-BY-NC 4.0 (https://creativecommons.org/licenses/by-nc/4.0/legalcode)
!!!EED: Mair-Gruber, Roland
!!!EEV: 2021/11/09
!!!title: @{OPR} &mdash; @{OTL}
